X:53
T:Sarkynyt Onni  (Shattered Happiness)
M:3/4
L:1/4
Q:1/4=150
R:waltz
K:Dm
A, |: "Dm" D2 ^C/2D/2 | F2 E/2D/2 | "Gm" G2 ^F/2G/2 | B d B |
"A7" A2 E/2G/2 | F2 ^C/2E/2 | "Dm" (D3 |[1 D2) A, :|[2 D) A F || !
|: "Dm" E2 D | "A7" ^C2 D | "Gm" (E3 | E) A G | "A7" F2 E | D2 E |
"Dm" (F3 | F) "D7" A c | "Adim" c2 "Gm" B | B G B | "Dm" B2 A | !
[1 A F A | "Gm" A2 G | "Ddim" F2 G | "A7" (E3 | E) A F :|
[2 A F D | "A7" ^C2 B | A2 ^C | "Dm" (D3 | D) z z ||
